data/icons/hicolor/16x16/apps/docky.svg

<?xml version="1.0" encoding="UTF-8" standalone="no"?>
<!-- Created with Inkscape (http://www.inkscape.org/) -->

<svg
   xmlns:svg="http://www.w3.org/2000/svg"
   xmlns="http://www.w3.org/2000/svg"
   xmlns:xlink="http://www.w3.org/1999/xlink"
   version="1.1"
   width="16"
   height="16"
   id="svg3782">
  <defs
     id="defs3784">
    <linearGradient
       x1="24.675762"
       y1="4.1577182"
       x2="24.675762"
       y2="46.698467"
       id="linearGradient2635"
       xlink:href="#linearGradient2238"
       gradientUnits="userSpaceOnUse"
       gradientTransform="matrix(0.2885901,0,0,0.281741,1.0734846,1.5216393)" />
    <linearGradient
       id="linearGradient2238">
      <stop
         id="stop2240"
         style="stop-color:#ffffff;stop-opacity:1"
         offset="0" />
      <stop
         id="stop2242"
         style="stop-color:#ffffff;stop-opacity:0"
         offset="1" />
    </linearGradient>
    <linearGradient
       id="linearGradient2867-449-88-871-390-598-476-591-434-148">
      <stop
         id="stop4627"
         style="stop-color:#51cfee;stop-opacity:1"
         offset="0" />
      <stop
         id="stop4629"
         style="stop-color:#49a3d2;stop-opacity:1"
         offset="0.26238" />
      <stop
         id="stop4631"
         style="stop-color:#3470b4;stop-opacity:1"
         offset="0.704952" />
      <stop
         id="stop4633"
         style="stop-color:#1b5699;stop-opacity:1"
         offset="1" />
    </linearGradient>
    <linearGradient
       id="linearGradient3707-319-631">
      <stop
         id="stop4637"
         style="stop-color:#254b6d;stop-opacity:1"
         offset="0" />
      <stop
         id="stop4639"
         style="stop-color:#415b73;stop-opacity:1"
         offset="0.5" />
      <stop
         id="stop4641"
         style="stop-color:#6195b5;stop-opacity:1"
         offset="1" />
    </linearGradient>
    <linearGradient
       x1="22.226261"
       y1="3.8111546"
       x2="22.226261"
       y2="44.286263"
       id="linearGradient3778"
       xlink:href="#linearGradient2867-449-88-871-390-598-476-591-434-148"
       gradientUnits="userSpaceOnUse"
       gradientTransform="matrix(0.3191203,0,0,0.3174019,0.3411166,0.37846332)" />
    <linearGradient
       x1="34.580818"
       y1="46.148075"
       x2="34.580818"
       y2="3.0448537"
       id="linearGradient3780"
       xlink:href="#linearGradient3707-319-631"
       gradientUnits="userSpaceOnUse"
       gradientTransform="matrix(0.3191203,0,0,0.3174019,0.3411166,0.37846332)" />
  </defs>
  <g
     id="layer1">
    <rect
       width="14.997868"
       height="12.997867"
       rx="1.5284374"
       ry="1.5617938"
       x="0.50106621"
       y="1.5010664"
       id="rect1316"
       style="fill:url(#linearGradient3778);fill-opacity:1;fill-rule:evenodd;stroke:url(#linearGradient3780);stroke-width:1.00213301;stroke-linecap:round;stroke-linejoin:round;stroke-miterlimit:4;stroke-opacity:1;stroke-dasharray:none;stroke-dashoffset:0" />
    <rect
       width="12.997868"
       height="10.997867"
       rx="0.53651923"
       ry="0.53651923"
       x="1.5010662"
       y="2.5010664"
       id="rect2232"
       style="opacity:0.4;fill:none;stroke:url(#linearGradient2635);stroke-width:1.00213301;stroke-linecap:round;stroke-linejoin:round;stroke-miterlimit:4;stroke-opacity:1;stroke-dasharray:none;stroke-dashoffset:0" />
    <path
       d="m 7.9999997,2.9999992 c -0.6902659,0 -1.2483393,0.4977877 -1.2481318,1.1111109 -1.375e-4,0.4073684 0.045133,0.7464217 0.4147984,0.9375001 l 0,0.9513896 -1.7977851,0 c -0.1231675,0 -0.2145225,0.069048 -0.2145225,0.1785717 l 0,0.6428568 c 0,0.1095241 0.091354,0.1785715 0.2145225,0.1785715 l 1.6311188,0 0,4.4375012 c 0.3444781,0.14759 -0.3311943,-0.03728 -0.4626546,-0.05208 -0.4805725,-0.1251 -0.9247259,-0.294135 -1.3651442,-0.503474 -0.18543,-0.09152 -0.3810692,-0.176395 -0.5460577,-0.295138 -0.071112,-0.05401 -0.144072,-0.136436 -0.136514,-0.225693 0.00961,-0.06757 0.033416,-0.14389 0.117012,-0.15625 0.075345,-0.01062 0.1478997,0.02969 0.2145222,0.05208 0.057435,0.02205 0.1066983,-0.04431 0.097511,-0.08681 C 4.9094303,10.058182 4.866817,9.9545504 4.8016628,9.8576373 4.6661053,9.6591424 4.4526205,9.5158393 4.2361025,9.3888883 4.0049325,9.2574653 3.7584925,9.1129716 3.6120375,8.9027766 3.5829025,8.8639299 3.5407945,8.7953167 3.4755225,8.8159716 c -0.09074,0.026201 -0.131075,0.1053667 -0.175519,0.1736118 -0.125043,0.211837 -0.197148,0.444695 -0.253526,0.677083 -0.046346,0.1849 -0.055192,0.3845166 -0.039004,0.5729176 0.01676,0.188508 0.031253,0.379516 0.117013,0.555555 0.054007,0.115687 0.158842,0.204614 0.253526,0.295139 0.060419,-0.05687 0.11371,-0.117907 0.175519,-0.17361 0.0801,-0.07158 0.194804,-0.118061 0.312032,-0.104167 0.159555,0.01828 0.303659,0.108693 0.429045,0.190972 0.176618,0.122265 0.327103,0.245871 0.5070543,0.364583 0.2847501,0.193722 0.6134517,0.331198 0.9360992,0.46875 0.2688084,0.111127 0.5401326,0.222124 0.8190859,0.312501 0.049955,0.01942 0.1051575,0.01854 0.1560159,0.03472 0.5020517,0.185876 0.92012,0.410896 1.2676342,0.79861 0.00225,-0.0017 0.017497,0.0023 0.019502,0 0.00401,0.0045 0.015515,0.01277 0.019502,0.01736 0.00261,-0.01071 -0.00256,-0.02397 0,-0.03472 0.3464233,-0.383219 0.7686275,-0.596501 1.2676334,-0.78125 0.05086,-0.01618 0.1060608,-0.0153 0.1560166,-0.03472 0.278955,-0.09038 0.5502767,-0.201374 0.819086,-0.312501 0.322648,-0.137552 0.651348,-0.275028 0.936099,-0.46875 0.179952,-0.118712 0.330438,-0.242318 0.507054,-0.364583 0.125387,-0.08228 0.26949,-0.17269 0.429045,-0.190972 0.117229,-0.01389 0.231934,0.03258 0.312033,0.104167 0.06181,0.0557 0.1151,0.116743 0.175518,0.17361 0.09468,-0.09052 0.199519,-0.179453 0.253527,-0.295139 0.08576,-0.176038 0.100253,-0.367047 0.117012,-0.555555 0.01619,-0.188401 0.0073,-0.3880176 -0.039,-0.5729176 C 12.897146,9.4342784 12.825045,9.2014214 12.7,8.9895834 12.65556,8.9213374 12.61522,8.8421725 12.524481,8.8159716 c -0.06527,-0.020655 -0.107381,0.047958 -0.136514,0.086805 -0.146456,0.210195 -0.392896,0.3546887 -0.624066,0.4861117 -0.216518,0.126951 -0.430001,0.2702541 -0.565559,0.468749 -0.06515,0.096912 -0.107767,0.2005447 -0.117012,0.3125007 -0.0092,0.0425 0.04008,0.108855 0.09751,0.08681 0.06662,-0.02239 0.139178,-0.06271 0.214523,-0.05208 0.0836,0.01236 0.107406,0.08868 0.117012,0.15625 0.0076,0.08926 -0.0654,0.171684 -0.136515,0.225693 -0.164987,0.118744 -0.360627,0.203621 -0.546056,0.295138 -0.44042,0.209339 -0.8845728,0.378374 -1.3651453,0.503474 C 9.3003849,11.522389 9.066866,11.431963 9,11.437503 l 0,-4.4375012 1.649506,0 c 0.123167,0 0.214523,-0.069047 0.214523,-0.1785715 l 0,-0.6428568 c 0,-0.1095233 -0.09136,-0.1785717 -0.214523,-0.1785717 l -1.816173,0 0,-0.9513896 C 9.2029997,4.8575318 9.2482697,4.5184785 9.2481314,4.1111101 9.2483389,3.4977869 8.6902622,2.9999992 7.9999997,2.9999992 z m -0.019502,0.5381943 c 0.33508,0 0.604665,0.2404642 0.6045642,0.538195 1.008e-4,0.2977308 -0.2694842,0.5381943 -0.6045642,0.5381943 -0.3350809,0 -0.6241667,-0.2404635 -0.6240659,-0.5381943 -1.008e-4,-0.2977301 0.288985,-0.538195 0.6240659,-0.538195 z"
       id="path1919"
       style="fill:#eeeeec;fill-opacity:1;fill-rule:nonzero;stroke:none" />
  </g>
</svg>

<?xml version="1.0" encoding="UTF-8" standalone="no"?>
<!-- Created with Inkscape (http://www.inkscape.org/) -->
<svg
   xmlns:svg="http://www.w3.org/2000/svg"
   xmlns="http://www.w3.org/2000/svg"
   xmlns:xlink="http://www.w3.org/1999/xlink"
   version="1.0"
   width="16"
   height="16"
   id="svg4375">
  <defs
     id="defs4377">
    <linearGradient
       id="linearGradient2238">
      <stop
         id="stop2240"
         style="stop-color:#ffffff;stop-opacity:1"
         offset="0" />
      <stop
         id="stop2242"
         style="stop-color:#ffffff;stop-opacity:0"
         offset="1" />
    </linearGradient>
    <linearGradient
       id="linearGradient3242-593-605-251-305-611-783-329-246-200-38-179-24-325">
      <stop
         id="stop6295"
         style="stop-color:#9ba7db;stop-opacity:1"
         offset="0" />
      <stop
         id="stop6297"
         style="stop-color:#6f99cd;stop-opacity:1"
         offset="0.26238" />
      <stop
         id="stop6299"
         style="stop-color:#4683b0;stop-opacity:1"
         offset="0.66093999" />
      <stop
         id="stop6301"
         style="stop-color:#2c7387;stop-opacity:1"
         offset="1" />
    </linearGradient>
    <linearGradient
       id="linearGradient3332-412-419-652-471-84-177-907-6-893-113-271-332-430">
      <stop
         id="stop6305"
         style="stop-color:#09387d;stop-opacity:1"
         offset="0" />
      <stop
         id="stop6307"
         style="stop-color:#5a82b7;stop-opacity:1"
         offset="1" />
    </linearGradient>
    <linearGradient
       x1="24.675762"
       y1="4.1577182"
       x2="24.675762"
       y2="46.698467"
       id="linearGradient2635"
       xlink:href="#linearGradient2238"
       gradientUnits="userSpaceOnUse"
       gradientTransform="matrix(0.2885901,0,0,0.281741,1.0734846,1.5216395)" />
    <linearGradient
       x1="22.226261"
       y1="3.8111546"
       x2="22.226261"
       y2="44.286263"
       id="linearGradient2639"
       xlink:href="#linearGradient3242-593-605-251-305-611-783-329-246-200-38-179-24-325"
       gradientUnits="userSpaceOnUse"
       gradientTransform="matrix(0.3191203,0,0,0.3174019,0.3411166,0.3784635)" />
    <linearGradient
       x1="34.580818"
       y1="46.148075"
       x2="34.580818"
       y2="3.0448537"
       id="linearGradient2641"
       xlink:href="#linearGradient3332-412-419-652-471-84-177-907-6-893-113-271-332-430"
       gradientUnits="userSpaceOnUse"
       gradientTransform="matrix(0.3191203,0,0,0.3174019,0.3411166,0.3784635)" />
  </defs>
  <rect
     width="14.997868"
     height="12.997867"
     rx="1.5284374"
     ry="1.5617938"
     x="0.50106621"
     y="1.5010667"
     id="rect1316"
     style="fill:url(#linearGradient2639);fill-opacity:1;fill-rule:evenodd;stroke:url(#linearGradient2641);stroke-width:1.00213301;stroke-linecap:round;stroke-linejoin:round;stroke-miterlimit:4;stroke-dasharray:none;stroke-dashoffset:0;stroke-opacity:1" />
  <rect
     width="12.997868"
     height="10.997867"
     rx="0.53651923"
     ry="0.53651923"
     x="1.5010662"
     y="2.5010667"
     id="rect2232"
     style="opacity:0.4;fill:none;fill-opacity:1;fill-rule:evenodd;stroke:url(#linearGradient2635);stroke-width:1.00213301;stroke-linecap:round;stroke-linejoin:round;stroke-miterlimit:4;stroke-dasharray:none;stroke-dashoffset:0;stroke-opacity:1" />
  <path
     d="M 7.9999997,2.9999994 C 7.3097338,2.9999994 6.7516604,3.4977871 6.7518679,4.1111103 C 6.7517304,4.5184787 6.7970004,4.857532 7.1666663,5.0486104 L 7.1666663,6 L 5.3688812,6 C 5.2457137,6 5.1543587,6.0690484 5.1543587,6.1785717 L 5.1543587,6.8214285 C 5.1543587,6.9309526 5.2457129,7 5.3688812,7 L 7,7 L 7,11.437501 C 7.3444781,11.585091 6.6688057,11.400217 6.5373454,11.385418 C 6.0567729,11.260318 5.6126195,11.091283 5.1722012,10.881944 C 4.9867712,10.790427 4.791132,10.705549 4.6261435,10.586806 C 4.5550315,10.532797 4.4820715,10.45037 4.4896295,10.361113 C 4.4992355,10.293543 4.5230455,10.217223 4.6066415,10.204863 C 4.6819862,10.194238 4.7545412,10.234557 4.8211637,10.256944 C 4.8785987,10.278993 4.927862,10.212638 4.9186745,10.170138 C 4.9094303,10.058182 4.866817,9.9545506 4.8016628,9.8576375 C 4.6661053,9.6591426 4.4526205,9.5158395 4.2361025,9.3888885 C 4.0049325,9.2574655 3.7584925,9.1129718 3.6120375,8.9027768 C 3.5829025,8.8639301 3.5407945,8.7953169 3.4755225,8.8159718 C 3.3847825,8.8421727 3.3444475,8.9213385 3.3000035,8.9895836 C 3.1749605,9.2014206 3.1028555,9.4342786 3.0464775,9.6666666 C 3.0001315,9.8515666 2.9912855,10.051183 3.0074735,10.239584 C 3.0242335,10.428092 3.0387265,10.6191 3.1244865,10.795139 C 3.1784935,10.910826 3.2833285,10.999753 3.3780125,11.090278 C 3.4384315,11.033411 3.4917225,10.972371 3.5535315,10.916668 C 3.6336315,10.845083 3.7483355,10.798607 3.8655635,10.812501 C 4.0251185,10.830783 4.1692225,10.921194 4.2946085,11.003473 C 4.4712265,11.125738 4.6217115,11.249344 4.8016628,11.368056 C 5.0864129,11.561778 5.4151145,11.699254 5.737762,11.836806 C 6.0065704,11.947933 6.2778946,12.05893 6.5568479,12.149307 C 6.6068029,12.168728 6.6620054,12.167846 6.7128638,12.184028 C 7.2149155,12.369904 7.6329838,12.594924 7.980498,12.982638 C 7.982753,12.980889 7.9979947,12.984913 7.9999997,12.982638 C 8.0040088,12.987185 8.0155147,12.995405 8.0195022,13.000001 C 8.0221097,12.989293 8.0169388,12.976031 8.0195022,12.965278 C 8.3659255,12.582059 8.7881297,12.368777 9.2871356,12.184028 C 9.3379956,12.167844 9.3931964,12.168728 9.4431522,12.149307 C 9.7221072,12.058928 9.9934289,11.947933 10.262238,11.836806 C 10.584886,11.699254 10.913586,11.561778 11.198337,11.368056 C 11.378289,11.249344 11.528775,11.125738 11.705391,11.003473 C 11.830778,10.921194 11.974881,10.830783 12.134436,10.812501 C 12.251665,10.798607 12.36637,10.845083 12.446469,10.916668 C 12.508279,10.972371 12.561569,11.033411 12.621987,11.090278 C 12.71667,10.999753 12.821506,10.910825 12.875514,10.795139 C 12.961275,10.619101 12.975767,10.428092 12.992526,10.239584 C 13.008716,10.051183 12.999867,9.8515666 12.953521,9.6666666 C 12.897145,9.4342786 12.82504,9.2014216 12.699995,8.9895836 C 12.655552,8.9213376 12.615216,8.8421727 12.524476,8.8159718 C 12.459205,8.7953169 12.417095,8.8639301 12.387962,8.9027768 C 12.241506,9.1129718 11.995066,9.2574655 11.763896,9.3888885 C 11.547378,9.5158395 11.333895,9.6591426 11.198337,9.8576375 C 11.133183,9.9545495 11.09057,10.058182 11.081325,10.170138 C 11.072139,10.212638 11.121401,10.278993 11.178835,10.256944 C 11.245459,10.234557 11.318013,10.194239 11.393358,10.204863 C 11.476955,10.217223 11.500764,10.293543 11.51037,10.361113 C 11.517928,10.45037 11.444967,10.532797 11.373855,10.586806 C 11.208868,10.70555 11.013228,10.790427 10.827799,10.881944 C 10.387379,11.091283 9.9432264,11.260318 9.4626539,11.385418 C 9.3003849,11.522389 9.066866,11.431967 9,11.437501 L 9,7 L 10.649506,7 C 10.772673,7 10.864029,6.9309526 10.864029,6.8214285 L 10.864029,6.1785717 C 10.864029,6.0690484 10.772673,6 10.649506,6 L 8.833333,6 L 8.833333,5.0486104 C 9.2029997,4.857532 9.2482697,4.5184787 9.2481314,4.1111103 C 9.2483389,3.4977871 8.6902622,2.9999994 7.9999997,2.9999994 z M 7.980498,3.5381937 C 8.315578,3.5381937 8.585163,3.7786579 8.5850622,4.0763887 C 8.585163,4.3741195 8.315578,4.614583 7.980498,4.614583 C 7.6454171,4.614583 7.3563313,4.3741195 7.3564321,4.0763887 C 7.3563313,3.7786586 7.6454171,3.5381937 7.980498,3.5381937 z"
     id="path1919"
     style="fill:#eeeeec;fill-opacity:1;fill-rule:nonzero;stroke:none;stroke-width:10;stroke-miterlimit:4;stroke-dasharray:none;stroke-opacity:1" />
</svg>
